X: 1
T: Catholic Boys
O: safd 133
R: jig
N: A variant of the Blackthorn Stick, which has many other names.
S: Printed page of unknown origin.
Z: 2019 John Chambers <jc:trillian.mit.edu>
M: 6/8
L: 1/8
K: G
d |\
"G"gfg "C"ege | "G"dBG "C"AGE | "G"DGG "Am"AGA | "D7"BAA A2d |\
"G"gfg "C"ege | "G"dBG "C"AGE | "G"DGG "D7"AGA | "G"BGG G2 :|
|: d |\
"G"Bdd edd | gdd edd | Bdd "(Em)"gfg | "Am"eaa "D7"a2d |\
"G"gfg "C"ege | "G"dBG "C"AGE | "G"DGG "D7"AGA | "G"BGG G2 :|
